docs/img/all-services/13.svg

<svg width="80" height="80" viewBox="0 0 80 80" fill="none" xmlns="http://www.w3.org/2000/svg">
<path d="M40 28.4189V37.3619" stroke="#0098D0" stroke-width="2" stroke-miterlimit="10" stroke-linecap="round" stroke-linejoin="round"/>
<path d="M45.543 27.7794L48.8972 34.9175" stroke="#0098D0" stroke-width="2" stroke-miterlimit="10" stroke-linecap="round" stroke-linejoin="round"/>
<path d="M34.4564 27.7794L31.1016 34.9175" stroke="#0098D0" stroke-width="2" stroke-miterlimit="10" stroke-linecap="round" stroke-linejoin="round"/>
<path d="M22.8108 59.0556C14.2353 53.4546 8.57031 43.7836 8.57031 32.7927C8.57031 15.4709 22.6412 1.42859 39.999 1.42859C57.3568 1.42859 71.4275 15.4709 71.4275 32.7927C71.4275 43.7824 65.7642 53.4515 57.1917 59.0526" stroke="#0098D0" stroke-width="2" stroke-miterlimit="10" stroke-linecap="round" stroke-linejoin="round"/>
<path d="M61.4379 71.941L52.1529 44.5457L27.8468 44.5451L18.5621 71.941C17.4589 75.1963 19.8849 78.5714 23.3284 78.5714H56.6719C60.1154 78.5708 62.5411 75.1963 61.4379 71.941Z" stroke="#0098D0" stroke-width="2" stroke-miterlimit="10" stroke-linecap="round" stroke-linejoin="round"/>
<path d="M27.844 44.5451C24.8913 41.5052 23.0742 37.3613 23.0742 32.7926C23.0742 23.4658 30.6507 15.9041 39.9972 15.9041C49.3438 15.9041 56.9205 23.4652 56.9205 32.7926C56.9205 37.3613 55.1023 41.5058 52.1501 44.5457" stroke="#0098D0" stroke-width="2" stroke-miterlimit="10" stroke-linecap="round" stroke-linejoin="round"/>
<path d="M48.841 49.1554L52.177 58.9967C44.2148 56.7533 35.7847 56.7534 27.823 58.997L31.1586 49.1549L48.841 49.1554Z" stroke="#0098D0" stroke-width="2"/>
</svg>

<svg width="80" height="80" fill="none" xmlns="http://www.w3.org/2000/svg"><path d="M40 28.419v8.943m5.543-9.582l3.354 7.137M34.456 27.78l-3.354 7.137M22.81 59.056C14.236 53.455 8.57 43.784 8.57 32.793 8.57 15.47 22.641 1.429 40 1.429c17.358 0 31.428 14.042 31.428 31.364 0 10.99-5.663 20.659-14.235 26.26" stroke="#0098D0" stroke-width="2" stroke-miterlimit="10" stroke-linecap="round" stroke-linejoin="round"/><path d="M61.438 71.941l-9.285-27.395H27.847L18.562 71.94c-1.103 3.255 1.323 6.63 4.766 6.63h33.344c3.443 0 5.87-3.375 4.766-6.63zM27.844 44.545a16.812 16.812 0 01-4.77-11.752c0-9.327 7.577-16.889 16.923-16.889 9.347 0 16.923 7.561 16.923 16.889 0 4.568-1.818 8.713-4.77 11.753" stroke="#0098D0" stroke-width="2" stroke-miterlimit="10" stroke-linecap="round" stroke-linejoin="round"/><path d="M48.841 49.155l3.336 9.842a44.903 44.903 0 00-24.354 0l3.336-9.842H48.84z" stroke="#0098D0" stroke-width="2"/></svg>
